X: 1
T: Coridinio
M: 4/4
L: 1/8
R: hornpipe
K: Gmaj
DGBA GFAG | FE F2 DFAc | AF d2 DFAc | AF d2 B2 B2 | DGBA GFAG | F=F E2 C EGc | BAdB GDcA | FD G2 GG G2 :| _B_BAA GG=F=F | _E_EDD-D2 DF | ADFA DDF A | DFA_B-_B2 GG | _B_BAA GG=F=F | _E_EDC-C2 CD | _E=FGA  _BGD_B | AFDA GG G2 :| Bc d2 BcdB | cd e2 cdec | de f2 defd | ef g2 b2 b2 | Bc d2 BcdB | cd e2 cdec | de f2 fgfd | efgd Bd G2  :|
